X:428
M:C
L:1/8
K:G Minor
d|g<ba<b g<dB<G|c<ag<a f<cA<F|g<ba<b g<dB<G|AB/c/ D>d B<G G>d|
g<ba<b g<dB<G|c<ag<a f<cA<F|G>B c<A B>d =e<c|d<g^f<a g2g||

